!!!COM:	Messiaen
!!!OTL:	727_Mes-9/9/1-8
**kern	**kern	**dynam	**kern	**dynam
*part2	*part2	*part2	*part1	*part1
*staff3	*staff2	*	*staff1	*
*I"Piano	*	*	*I"Violin	*
*I'Pno.	*	*	*I'Vln.	*
*clefG2	*clefG2	*	*clefG2	*
*k[]	*k[]	*	*k[]	*
*C:	*C:	*	*C:	*
*M4/4	*M4/4	*	*M4/4	*
=1	=	=	=	=
12B-XL	8eee-X'L 8fff#X	f	8f#X	.
12e-X	.	.	.	.
.	8bbn' 8ggg	.	8r	.
12gJ	.	.	.	.
12BnL	8bb-X' 8ddd	.	4r	.
12en	.	.	.	.
.	8ff#X'J 8eee-X	.	.	.
12a-XJ	.	.	.	.
12e-XL	8gg'L 8bb-X	.	2r	.
12a-X	.	.	.	.
.	8ee-X' 8bbn	.	.	.
12ccJ	.	.	.	.
12enL	8dd' 8ff#X	.	.	.
12an	.	.	.	.
.	8bn'J 8gg	.	.	.
12ddJ	.	.	.	.
=2	=2	=2	=2	=2
12e-XL	8gg'L 8bb-X	.	1r	.
12a-X	.	.	.	.
.	8ee-X' 8bbn	.	.	.
12ccJ	.	.	.	.
12BL	8bb-X' 8ddd	.	.	.
12en	.	.	.	.
.	8ff#X'J 8eee-X	.	.	.
12a-J	.	.	.	.
12B-XL	8eee-'L 8fff#X	.	.	.
12e-X	.	.	.	.
.	8bbn' 8ggg	.	.	.
12gJ	.	.	.	.
*8va	*	*	*	*
12A-XL	8aaa-X' 8bbbn	.	.	.
12c	.	.	.	.
*X8va	*	*	*	*
.	8een'J 8ccc	.	.	.
12e-XJ	.	.	.	.
=3	=3	=3	=3	=3
12B-XL	8eee-X'L 8fff#X	.	8ccL	<
12e-X	.	.	.	.
.	8bbn' 8ggg	.	8ddJ	.
12gJ	.	.	.	.
12BnL	8bb-X' 8ddd	.	(2gg	[
12en	.	.	.	.
.	8ff#X'J 8eee-X	.	.	.
12a-XJ	.	.	.	.
12e-XL	8gg'L 8bb-X	.	.	.
12a-X	.	.	.	.
.	8ee-X' 8bbn	.	.	.
12ccJ	.	.	.	.
12enL	8dd' 8ff#X	.	4ff#X)	[[
12an	.	.	.	.
.	8bn'J 8gg	.	.	.
12ddJ	.	.	.	.
=4	=4	=4	=4	=4
!!linebreak:original
12e-XL	8gg'L 8bb-X	.	2.cc	[
12a-X	.	.	.	.
.	8ee-X' 8bbn	.	.	.
12ccJ	.	.	.	.
12BL	8bb-X' 8ddd	.	.	.
12en	.	.	.	.
.	8ff#X'J 8eee-X	.	.	.
12a-J	.	.	.	.
12B-XL	8eee-'L 8fff#X	.	.	.
12e-X	.	.	.	.
.	8bbn' 8ggg	.	.	.
12gJ	.	.	.	.
*8va	*	*	*	*
12A-XL	8aaa-X' 8bbbn	.	4r	.
12c	.	.	.	.
*X8va	*	*	*	*
.	8een'J 8ccc	.	.	.
12e-XJ	.	.	.	.
=5	=5	=5	=5	=5
12B-XL	8eee-X'L 8fff#X	.	8ccL	<
12e-X	.	.	.	.
.	8bbn' 8ggg	.	8ddJ	.
12gJ	.	.	.	.
12BnL	8bb-X' 8ddd	.	(2gg	[
12en	.	.	.	.
.	8ff#X'J 8eee-X	.	.	.
12a-XJ	.	.	.	.
12e-XL	8gg'L 8bb-X	.	.	.
12a-X	.	.	.	.
.	8ee-X' 8bbn	.	.	.
12ccJ	.	.	.	.
12enL	8dd' 8ff#X	.	4ff#X)	[[
12an	.	.	.	.
.	8bn'J 8gg	.	.	.
12ddJ	.	.	.	.
=6	=6	=6	=6	=6
12e-XL	8gg'L 8bb-X	.	2.cc	[
12a-X	.	.	.	.
.	8ee-X' 8bbn	.	.	.
12ccJ	.	.	.	.
12BL	8bb-X' 8ddd	.	.	.
12en	.	.	.	.
.	8ff#X'J 8eee-X	.	.	.
12a-J	.	.	.	.
12B-XL	8eee-'L 8fff#X	.	.	.
12e-X	.	.	.	.
.	8bbn' 8ggg	.	.	.
12gJ	.	.	.	.
*8va	*	*	*	*
12A-XL	8aaa-X' 8bbbn	.	4r	.
12c	.	.	.	.
*X8va	*	*	*	*
.	8een'J 8ccc	.	.	.
12e-XJ	.	.	.	.
=7	=7	=7	=7	=7
!!linebreak:original
12B-XL	8eee-X'L 8fff#X	.	8ccL	.
12e-X	.	.	.	.
.	8bbn' 8ggg	.	8ddJ	.
12gJ	.	.	.	.
12BnL	8bb-X' 8ddd	.	4gg	.
12en	.	.	.	.
.	8ff#X'J 8eee-X	.	.	.
12a-XJ	.	.	.	.
12e-XL	8gg'L 8bb-X	.	8ccL	.
12a-X	.	.	.	.
.	8ee-X' 8bbn	.	8ddJ	.
12ccJ	.	.	.	.
12enL	8dd' 8ff#X	.	4bb	.
12an	.	.	.	.
.	8bn'J 8gg	.	.	.
12ddJ	.	.	.	.
=8	=8	=8	=8	=8
12e-XL	8gg'L 8bb-X	.	8ccL	.
12a-X	.	.	.	.
.	8ee-X' 8bbn	.	8ddJ	.
12ccJ	.	.	.	.
12BL	8bb-X' 8ddd	.	4gg	.
12en	.	.	.	.
.	8ff#X'J 8eee-X	.	.	.
12a-J	.	.	.	.
12B-XL	8eee-'L 8fff#X	.	8ccL	.
12e-X	.	.	.	.
.	8bbn' 8ggg	.	8ddJ	.
12gJ	.	.	.	.
*8va	*	*	*	*
12A-XL	8aaa-X' 8bbbn	.	4bb	.
12c	.	.	.	.
*X8va	*	*	*	*
.	8een'J 8ccc	.	.	.
12e-XJ	.	.	.	.
==	==	==	==	==
*-	*-	*-	*-	*-
!!!system-decoration: s1{(s2,s3)}
!!!ONB: Converted from MusicXML on 2020/01/17
